alternatives/kde-colorscheme/96/places/folder-temp-open.svg

<?xml version="1.0" encoding="UTF-8" standalone="no"?>
<!-- Created with Inkscape (http://www.inkscape.org/) -->

<svg
   width="96"
   height="96"
   viewBox="0 0 96 96"
   version="1.1"
   id="svg5"
   inkscape:version="1.2.2 (1:1.2.2+202305151914+b0a8486541)"
   sodipodi:docname="folder-temp-open.svg"
   xmlns:inkscape="http://www.inkscape.org/namespaces/inkscape"
   xmlns:sodipodi="http://sodipodi.sourceforge.net/DTD/sodipodi-0.dtd"
   xmlns="http://www.w3.org/2000/svg"
   xmlns:svg="http://www.w3.org/2000/svg">
  <sodipodi:namedview
     id="namedview7"
     pagecolor="#ffffff"
     bordercolor="#000000"
     borderopacity="0.25"
     inkscape:showpageshadow="2"
     inkscape:pageopacity="0.0"
     inkscape:pagecheckerboard="0"
     inkscape:deskcolor="#d1d1d1"
     inkscape:document-units="px"
     showgrid="false"
     inkscape:zoom="8.3958333"
     inkscape:cx="47.940447"
     inkscape:cy="48"
     inkscape:window-width="1920"
     inkscape:window-height="1008"
     inkscape:window-x="0"
     inkscape:window-y="0"
     inkscape:window-maximized="1"
     inkscape:current-layer="svg5" />
  <defs
     id="defs2">
    <style
       id="current-color-scheme"
       type="text/css">
         .ColorScheme-Text { color:#232629; }
         .ColorScheme-Highlight { color:#3daee9; }
     </style>
  </defs>
  <path
     d="m 12,13 c -3.323997,0 -6,2.676004 -6,6 v 60 c 0,3.323996 2.676003,6 6,6 h 72 c 3.323996,0 6,-2.676004 6,-6 V 29 c 0,-3.323996 -2.676004,-6 -6,-6 H 48 l -6,-7 c -1.6357,-1.836774 -2.676004,-3 -6,-3 z"
     style="opacity:0.3;fill:#000000;stroke-width:3"
     id="path1016"
     sodipodi:nodetypes="ssssssssccss" />
  <path
     id="rect184"
     style="fill:currentColor;fill-opacity:1;stroke-width:4"
     class="ColorScheme-Highlight"
     d="m 12,12 c -3.3239968,0 -6,2.676002 -6,6 v 60 c 0,3.323996 2.6760032,6 6,6 h 72 c 3.323996,0 6,-2.676004 6,-6 V 28 c 0,-3.323996 -2.676004,-6 -6,-6 H 48 l -6,-7 c -1.672966,-2.152788 -2.676004,-3 -6,-3 z"
     sodipodi:nodetypes="sccsssssccss" />
  <path
     id="path1511"
     style="opacity:0.4;fill:#000000;fill-opacity:1;stroke-width:2"
     d="m 12,12 c -3.323988,0 -6,2.676008 -6,6 v 26 c 0,-3.313698 2.686306,-6 6,-6 h 24 c 3.323984,0 3.999588,-1.158078 6,-3 l 6,-7 h 36 c 3.323994,0 6,2.676006 6,6 v -6 c 0,-3.323994 -2.676006,-6 -6,-6 H 48 l -6,-7 c -1.672962,-2.152784 -2.67601,-3 -6,-3 z" />
  <path
     id="path3081"
     style="opacity:0.2;fill:#ffffff;stroke-width:3"
     d="m 48,28 -6,7 c -2.000414,1.841926 -2.67601,3 -6,3 H 12 c -3.313698,0 -6,2.6863 -6,6 v 1 c 0,-3.3137 2.686302,-6 6,-6 h 24 c 3.32399,0 3.999586,-1.158074 6,-3 l 6,-7 h 36 c 3.323984,0 6,2.676016 6,6 v -1 c 0,-3.323984 -2.676016,-6 -6,-6 z"
     sodipodi:nodetypes="ccssscssccscssc" />
  <path
     d="M 48,50 V 62 H 59.999998 V 60 H 50 V 50 Z m 0,-6 c -9.941126,0 -18,8.058874 -18,18 0,9.941132 8.058874,18 18,18 9.941124,0 18,-8.058876 18,-18 0,-9.941126 -8.058876,-18.000002 -18,-18 z m 0,2 c 8.836556,-2e-6 16,7.163442 16,16 0,8.836558 -7.163444,16.00001 -16,16.000002 -8.836558,0 -16,-7.163444 -16,-16.000002 0,-8.836556 7.163442,-16 16,-16 z"
     style="opacity:0.6;fill:currentColor;fill-opacity:1;stroke-width:2.25;stroke-linecap:round;stroke-linejoin:round"
     id="path5851"
     class="ColorScheme-Text" />
</svg>

<?xml version="1.0" encoding="UTF-8" standalone="no"?>
<!-- Created with Inkscape (http://www.inkscape.org/) -->

<svg
   width="96"
   height="96"
   viewBox="0 0 96 96"
   version="1.1"
   id="svg5"
   inkscape:version="1.2.2 (b0a8486541, 2022-12-01)"
   sodipodi:docname="folder-temp-open.svg"
   xmlns:inkscape="http://www.inkscape.org/namespaces/inkscape"
   xmlns:sodipodi="http://sodipodi.sourceforge.net/DTD/sodipodi-0.dtd"
   xmlns="http://www.w3.org/2000/svg"
   xmlns:svg="http://www.w3.org/2000/svg">
  <sodipodi:namedview
     id="namedview7"
     pagecolor="#ffffff"
     bordercolor="#000000"
     borderopacity="0.25"
     inkscape:showpageshadow="2"
     inkscape:pageopacity="0.0"
     inkscape:pagecheckerboard="0"
     inkscape:deskcolor="#d1d1d1"
     inkscape:document-units="px"
     showgrid="false"
     inkscape:zoom="8.4375"
     inkscape:cx="48.059259"
     inkscape:cy="48.177778"
     inkscape:window-width="1920"
     inkscape:window-height="1000"
     inkscape:window-x="0"
     inkscape:window-y="0"
     inkscape:window-maximized="1"
     inkscape:current-layer="svg5" />
  <defs
     id="defs2">
    <style
       id="current-color-scheme"
       type="text/css">
         .ColorScheme-Highlight { color:#3daee9; }
     </style>
  </defs>
  <path
     d="m 12,13 c -3.323997,0 -6,2.676004 -6,6 v 60 c 0,3.323996 2.676003,6 6,6 h 72 c 3.323996,0 6,-2.676004 6,-6 V 29 c 0,-3.323996 -2.676004,-6 -6,-6 H 48 l -6,-7 c -1.6357,-1.836774 -2.676004,-3 -6,-3 z"
     style="opacity:0.3;fill:#000000;stroke-width:3"
     id="path1016"
     sodipodi:nodetypes="ssssssssccss" />
  <path
     id="rect184"
     style="fill:currentColor;fill-opacity:1;stroke-width:4"
     class="ColorScheme-Highlight"
     d="m 12,12 c -3.3239968,0 -6,2.676002 -6,6 v 60 c 0,3.323996 2.6760032,6 6,6 h 72 c 3.323996,0 6,-2.676004 6,-6 V 28 c 0,-3.323996 -2.676004,-6 -6,-6 H 48 l -6,-7 c -1.672966,-2.152788 -2.676004,-3 -6,-3 z"
     sodipodi:nodetypes="sccsssssccss" />
  <path
     id="path1511"
     style="opacity:0.4;fill:#000000;fill-opacity:1;stroke-width:2"
     d="M 12 12 C 8.6760106 12 6 14.676008 6 18 L 6 44 C 6 40.686303 8.6863049 38 12 38 L 36 38 C 39.323985 38 39.999588 36.841922 42 35 L 48 28 L 84 28 C 87.323994 28 90 30.676006 90 34 L 90 28 C 90 24.676006 87.323994 22 84 22 L 48 22 L 42 15 C 40.327038 12.847216 39.32399 12 36 12 L 12 12 z " />
  <path
     id="path3081"
     style="opacity:0.2;fill:#ffffff;stroke-width:3"
     d="m 48,28 -6,7 c -2.000414,1.841926 -2.67601,3 -6,3 H 12 c -3.3136982,0 -6,2.6863 -6,6 v 1 c 0,-3.3137 2.6863018,-6 6,-6 h 24 c 3.32399,0 3.999586,-1.158074 6,-3 l 6,-7 h 36 c 3.323984,0 6,2.676016 6,6 v -1 c 0,-3.323984 -2.676016,-6 -6,-6 z"
     sodipodi:nodetypes="ccssscssccscssc" />
  <path
     d="m 47.999999,49 v 11.999999 h 11.999999 v -2 H 49.999999 V 49 Z m 0,-6 C 38.058874,43 30,51.058874 30,60.999999 30,70.94113 38.058876,78.999998 47.999999,78.999998 57.941124,78.999998 66,70.941122 66,60.999999 66,51.058874 57.941124,42.999998 47.999999,43 Z m 0,2 C 56.836557,44.999998 64,52.163441 64,60.999999 64,69.836557 56.836557,77.000008 47.999999,77 39.163443,77 32,69.836557 32,60.999999 32,52.163443 39.163443,45 47.999999,45 Z"
     style="opacity:0.6;fill:#ffffff;fill-opacity:1;stroke-width:2.25;stroke-linecap:round;stroke-linejoin:round"
     id="path5851"
     sodipodi:nodetypes="cccccccssssssssss" />
</svg>
